X: 77
T:Gan Ainm
M:4/4
L:1/8
R:Reel
D:Session - Belfast
K:A
eA~A2 eAfA | e2ce fedc |1 Bcde fB~B2 | Bcde fgaf :|2 Bcde fgaf | ecBc A4 \
|: eaag aece | a2ga fece |1 fbba b3a | fbba fece :|2 Bcde fgaf | ecBc A4 ||
